images/grafik_pw_reset_link_M.svg

<svg width="136" height="136" viewBox="0 0 136 136" fill="none" xmlns="http://www.w3.org/2000/svg">
<path d="M37.7385 121.31C35.091 120.738 3.28103 115.581 5.62478 77.5502C7.96853 39.5189 10.906 28.0814 23.2735 23.8964C35.641 19.7114 65.6998 -0.0873109 89.2898 18.7389C95.4148 23.6264 101.654 28.3552 107.615 33.4702C115.805 40.5002 124.227 48.6164 128.25 59.2502C130.146 64.2701 130.857 69.6602 130.329 75.0002C129.712 81.2764 128.845 87.3752 127.265 93.5002C126.727 95.5835 126.189 97.6668 125.651 99.7502C125.329 101 125.004 102.258 124.495 103.435C121.224 111.023 117.097 116.001 110.184 120.041C104.184 123.541 96.7485 123.455 90.121 123.069C63.7673 121.533 50.3273 124.033 37.7385 121.31Z" fill="#F9F9F9"/>
<path d="M17.8296 49.9002V94.0252C17.8296 98.0477 20.9758 101.31 24.8596 101.31H109.936C113.811 101.31 116.958 98.0502 116.958 94.0252V49.9002C116.958 45.8765 113.815 42.6152 109.936 42.6152H24.8546C20.9758 42.6165 17.8296 45.8752 17.8296 49.9002Z" fill="white"/>
<path d="M117.215 49.8992V94.0242C117.215 98.1804 113.949 101.565 109.936 101.565H24.8548C20.8398 101.565 17.5698 98.1829 17.5698 94.0242V49.8992C17.5698 45.7429 20.8348 42.3579 24.8548 42.3579H109.936C113.949 42.3604 117.215 45.7429 117.215 49.8992ZM18.0898 94.0242C18.0898 97.8992 21.1261 101.054 24.8636 101.054H109.936C113.667 101.054 116.704 97.9017 116.704 94.0242V49.8992C116.704 46.0242 113.667 42.8692 109.936 42.8692H24.8548C21.1223 42.8692 18.0811 46.0229 18.0811 49.8992L18.0898 94.0242Z" fill="#6A79A8"/>
<g clip-path="url(#clip0)">
<path d="M117.208 94.2664L117.667 50.7426C117.713 46.4651 109.097 43.1176 98.4999 43.2738L36.9188 44.1851C26.8979 44.3326 18.8648 47.7938 18.9089 51.9101L19.3052 93.8026C19.3442 97.8426 27.3483 101.178 37.2547 101.249L98.1149 101.714C108.58 101.795 117.163 98.4626 117.208 94.2664Z" fill="white"/>
<path d="M67.8838 43.7269L117.423 73.8519L117.667 50.7494C117.713 46.4719 109.097 43.1244 98.5001 43.2806L67.8838 43.7269Z" fill="#F0F9FC"/>
<path d="M80.6539 101.581L19.0352 65.0576L19.3069 93.7976C19.3459 97.8376 27.35 101.173 37.2565 101.244L80.6539 101.581Z" fill="#F0F9FC"/>
<path d="M29.8271 44.8864L116.134 96.7251C116.811 95.9589 117.2 95.1314 117.208 94.2664L117.269 88.6139L43.4739 44.0889L36.9242 44.1851C34.5425 44.2141 32.1679 44.4487 29.8271 44.8864V44.8864Z" fill="#F0F9FC"/>
</g>
<path d="M107.71 45.8682V98.0607C107.71 98.127 107.683 98.1906 107.636 98.2375C107.59 98.2844 107.526 98.3107 107.46 98.3107H29.7797C29.7463 98.3115 29.7132 98.3057 29.6821 98.2935C29.651 98.2813 29.6227 98.263 29.5989 98.2397C29.575 98.2164 29.556 98.1886 29.543 98.1578C29.5301 98.1271 29.5234 98.0941 29.5234 98.0607V45.8682C29.5234 45.8349 29.5301 45.8019 29.543 45.7711C29.556 45.7404 29.575 45.7125 29.5989 45.6892C29.6227 45.6659 29.651 45.6476 29.6821 45.6354C29.7132 45.6233 29.7463 45.6174 29.7797 45.6182H107.453C107.487 45.6174 107.52 45.6233 107.551 45.6354C107.582 45.6476 107.61 45.6659 107.634 45.6892C107.658 45.7125 107.677 45.7404 107.69 45.7711C107.703 45.8019 107.71 45.8349 107.71 45.8682ZM107.198 97.8045V46.1257H30.0347V97.8045H107.198Z" fill="#6A79A8"/>
<path d="M115.084 68.394V75.3102C115.092 75.6856 115.026 76.0588 114.89 76.4087C114.754 76.7586 114.55 77.0783 114.291 77.3495C114.031 77.6207 113.721 77.8381 113.377 77.9894C113.033 78.1406 112.663 78.2226 112.288 78.2308C111.913 78.2391 111.539 78.1733 111.19 78.0372C110.84 77.9012 110.52 77.6975 110.249 77.4379C109.977 77.1783 109.76 76.8678 109.609 76.5242C109.458 76.1806 109.376 75.8106 109.367 75.4352C109.367 75.3952 109.367 75.3552 109.367 75.3102V68.394C109.359 68.0186 109.425 67.6454 109.561 67.2955C109.697 66.9455 109.901 66.6259 110.16 66.3547C110.42 66.0835 110.73 65.866 111.074 65.7148C111.418 65.5636 111.788 65.4815 112.163 65.4733C112.538 65.4651 112.912 65.5309 113.262 65.667C113.611 65.803 113.931 66.0067 114.202 66.2663C114.474 66.5259 114.691 66.8363 114.842 67.18C114.993 67.5236 115.075 67.8936 115.084 68.269C115.085 68.3127 115.085 68.3527 115.084 68.394ZM109.875 75.3102C109.868 75.6184 109.921 75.925 110.032 76.2125C110.144 76.5 110.311 76.7628 110.523 76.9858C110.736 77.2089 110.991 77.3878 111.273 77.5124C111.555 77.637 111.859 77.7049 112.167 77.7121C112.475 77.7193 112.782 77.6658 113.069 77.5545C113.357 77.4432 113.619 77.2764 113.842 77.0636C114.065 76.8508 114.244 76.5961 114.369 76.3141C114.494 76.0322 114.561 75.7284 114.569 75.4202C114.569 75.384 114.569 75.3477 114.569 75.3102V68.394C114.576 68.0858 114.522 67.7792 114.411 67.4917C114.3 67.2042 114.133 66.9414 113.92 66.7184C113.707 66.4953 113.453 66.3164 113.171 66.1918C112.889 66.0672 112.585 65.9993 112.277 65.9921C111.654 65.9775 111.052 66.2108 110.601 66.6406C110.151 67.0704 109.889 67.6615 109.875 68.284C109.875 68.3202 109.875 68.3565 109.875 68.394V75.3102Z" fill="#6A79A8"/>
<g clip-path="url(#clip1)">
<path d="M57.7447 62.3149H77.7761C79.0367 62.3149 80.0452 63.3375 80.0452 64.5873V77.704C80.0452 78.9664 79.0241 79.9764 77.7761 79.9764H57.7447C56.4841 79.9764 55.4756 78.9538 55.4756 77.704V64.5999C55.4756 63.3375 56.4841 62.3149 57.7447 62.3149Z" fill="#EF8F7F"/>
<path d="M58.8792 63.6914H76.6414C77.7003 63.6914 78.5576 64.5499 78.5576 65.6103V76.6945C78.5576 77.7549 77.7003 78.6134 76.6414 78.6134H58.8792C57.8203 78.6134 56.963 77.7549 56.963 76.6945V65.6103C56.9504 64.5499 57.8203 63.6914 58.8792 63.6914Z" fill="#F9AB98"/>
<path d="M77.9651 62.189H58.2993C57.0765 62.189 55.8033 62.5803 55.3242 63.8301C55.0091 64.6507 55.173 65.7743 55.173 66.6327V76.5176C55.173 77.6538 55.0595 78.8531 56.0932 79.6358C56.837 80.2039 57.7194 80.1155 58.5893 80.1155H76.7171C77.5995 80.1155 78.4693 80.1534 79.2509 79.6358C80.3729 78.9036 80.3603 77.7548 80.3603 76.5807V66.759C80.3603 65.8879 80.499 64.8779 80.3099 64.0195C80.0577 62.9086 79.0618 62.2268 77.9651 62.189C77.8264 62.189 77.2718 62.4415 77.5743 62.4541C78.8097 62.5046 79.7048 63.464 79.7426 64.6886C79.7552 64.9411 79.7426 65.1936 79.7426 65.4587V69.6247C79.7426 72.3137 79.7678 75.0153 79.7426 77.7043C79.73 78.689 79.1501 79.7494 78.0659 79.863C77.8895 79.8756 77.7004 79.8756 77.5239 79.863H64.6655C62.4594 79.863 60.2407 79.8883 58.0346 79.863C56.5975 79.8504 55.7781 78.7521 55.7655 77.4013C55.7655 76.2777 55.7655 75.1415 55.7655 74.018V65.0294C55.7655 63.8175 56.1815 62.5172 57.6438 62.4541C58.4128 62.4288 59.1944 62.4541 59.976 62.4541H77.5743C77.713 62.4541 78.2676 62.189 77.9651 62.189Z" fill="#6A79A8"/>
<path d="M63.3798 72.011C63.3798 72.2256 63.3293 72.4402 63.2411 72.6422C63.1276 72.882 62.9764 73.1093 62.7999 73.2986C62.573 73.5259 62.3082 73.7026 62.0183 73.8289C61.6653 73.9677 61.2871 74.0435 60.9089 74.0309C60.619 74.0309 60.329 74.0056 60.0391 73.9425C59.787 73.892 59.5474 73.791 59.3205 73.6647C59.0936 73.5259 58.9045 73.3618 58.728 73.1598C58.5642 72.9704 58.4255 72.7558 58.3246 72.5286C58.2112 72.2887 58.1229 72.0362 58.0725 71.7711C58.0095 71.4934 57.9843 71.203 57.9843 70.9253C57.9717 70.4834 58.0473 70.0416 58.1986 69.6123C58.3246 69.2462 58.5389 68.9054 58.8037 68.6276C59.0684 68.3499 59.3836 68.1353 59.7365 67.9964C60.1021 67.8576 60.4803 67.7818 60.8711 67.7818C61.3249 67.7692 61.7661 67.8702 62.1822 68.0722C62.5351 68.2363 62.8377 68.4888 63.0646 68.7918C63.2537 69.019 63.3545 69.3094 63.3671 69.6123C63.3671 69.7512 63.3167 69.8901 63.2159 69.9911C63.1276 70.0921 62.989 70.1552 62.8629 70.1552C62.7368 70.1678 62.6108 70.1299 62.5099 70.0416C62.4091 69.928 62.3208 69.8017 62.2452 69.6628C62.1191 69.3977 61.9174 69.1705 61.6779 68.9938C61.4384 68.8423 61.161 68.7665 60.8837 68.7665C60.4173 68.7539 59.9635 68.9685 59.6861 69.3346C59.3836 69.7133 59.2449 70.2562 59.2449 70.9631C59.2323 71.3671 59.2953 71.7585 59.4466 72.1372C59.5601 72.4276 59.7491 72.6674 60.0139 72.8315C60.266 72.983 60.5686 73.0714 60.8585 73.0588C61.1737 73.0714 61.4888 72.983 61.7535 72.7937C62.0057 72.6043 62.2074 72.3266 62.3082 72.0236C62.346 71.8847 62.4217 71.7459 62.4973 71.6322C62.5856 71.5186 62.7242 71.4681 62.8755 71.4807C63.0142 71.4807 63.1528 71.5312 63.2537 71.6322C63.3419 71.7332 63.3924 71.8721 63.3798 72.011Z" fill="white"/>
<path d="M64.4008 73.3363V68.4507C64.3882 68.2613 64.4386 68.0846 64.5521 67.9331C64.6529 67.8195 64.8042 67.7563 64.9555 67.7563C65.1068 67.7563 65.258 67.8068 65.3715 67.9205C65.485 68.072 65.548 68.2487 65.5228 68.4381V73.3237C65.5354 73.513 65.485 73.6898 65.3589 73.8413C65.258 73.9549 65.1068 74.018 64.9429 74.018C64.7916 74.018 64.6403 73.9549 64.5395 73.8413C64.4512 73.7024 64.3882 73.513 64.4008 73.3363Z" fill="white"/>
<path d="M67.2626 68.9177C67.1113 68.9177 66.9726 68.8672 66.8592 68.7789C66.6322 68.5642 66.6322 68.1981 66.8592 67.9835C66.9726 67.8825 67.1113 67.832 67.2626 67.832C67.4012 67.832 67.5399 67.8825 67.6533 67.9709C67.7668 68.0719 67.8298 68.2234 67.8172 68.3749C67.8298 68.5264 67.7668 68.6779 67.6533 68.7789C67.5399 68.8672 67.4012 68.9177 67.2626 68.9177ZM67.8172 70.0792V73.3362C67.8298 73.5256 67.7668 73.7023 67.6533 73.8538C67.5525 73.9675 67.4012 74.0306 67.2499 74.0306C67.0987 74.0306 66.9474 73.9675 66.8465 73.8538C66.7331 73.715 66.6827 73.5256 66.6953 73.3489V70.1297C66.6827 69.9529 66.7331 69.7636 66.8465 69.6247C66.9474 69.5111 67.0987 69.4479 67.2499 69.4606C67.4012 69.4606 67.5525 69.5111 67.6533 69.6247C67.7668 69.7383 67.8298 69.9024 67.8172 70.0792Z" fill="white"/>
<path d="M73.0233 72.6292C73.0233 72.7933 72.9729 72.9448 72.8972 73.0837C72.7964 73.2604 72.6703 73.4119 72.5191 73.5382C72.33 73.6896 72.103 73.8159 71.8635 73.8916C71.5736 73.98 71.2836 74.0179 70.9811 74.0179C70.2877 74.0179 69.7457 73.8159 69.3549 73.4119C68.9641 73.0079 68.775 72.4651 68.775 71.7834C68.7624 71.3541 68.8632 70.9375 69.0397 70.5588C69.2036 70.218 69.4809 69.9276 69.8213 69.7382C70.439 69.4226 71.1702 69.3595 71.8383 69.5741C72.0652 69.6499 72.2669 69.7635 72.456 69.9023C72.6073 70.016 72.746 70.1675 72.8468 70.3316C72.9225 70.4578 72.9729 70.6093 72.9855 70.7608C72.9855 70.887 72.9351 71.0133 72.8342 71.1017C72.7334 71.19 72.6073 71.2405 72.4686 71.2405C72.3804 71.2405 72.3047 71.2153 72.2417 71.1648C72.1661 71.1017 72.0904 71.0133 72.0274 70.9375C71.914 70.7608 71.7627 70.5967 71.5988 70.4704C71.145 70.1927 70.5525 70.2937 70.2247 70.6977C70.023 70.9628 69.9222 71.3163 69.9222 71.7707C69.9222 71.9727 69.9474 72.1621 69.9978 72.3515C70.0482 72.5156 70.1239 72.6671 70.2247 72.8059C70.3256 72.9322 70.439 73.0206 70.5777 73.0963C70.729 73.1594 70.8802 73.1973 71.0441 73.1973C71.2458 73.1973 71.4475 73.1468 71.624 73.0458C71.8005 72.9196 71.9518 72.7554 72.0526 72.5661C72.103 72.4525 72.1787 72.3515 72.2795 72.2631C72.3552 72.1874 72.4686 72.1495 72.5695 72.1621C72.6955 72.1621 72.8216 72.2126 72.9099 72.3136C72.9729 72.3767 73.0233 72.503 73.0233 72.6292Z" fill="white"/>
<path d="M76.4901 73.5004L75.4942 71.8592L74.8891 72.4399V73.3363C74.9017 73.5256 74.8387 73.7024 74.7252 73.8412C74.6244 73.9549 74.4857 74.018 74.3344 74.018C74.1831 74.0306 74.0319 73.9675 73.931 73.8412C73.8176 73.6898 73.7671 73.513 73.7797 73.3237V68.5264C73.7671 68.3244 73.8176 68.1224 73.9184 67.9583C74.0193 67.8321 74.1705 67.7563 74.3344 67.7689C74.4857 67.7563 74.6496 67.8321 74.7504 67.9457C74.8639 68.0972 74.9143 68.2865 74.9017 68.4759V71.2154L76.1623 69.8898C76.2758 69.7636 76.3892 69.65 76.5153 69.549C76.6036 69.4859 76.7044 69.4606 76.8179 69.4606C76.9439 69.4606 77.07 69.4985 77.1708 69.5995C77.2591 69.6878 77.3095 69.8141 77.3095 69.9403C77.3095 70.1044 77.1582 70.3191 76.8557 70.5968L76.2632 71.1396L77.423 72.9575C77.5112 73.0964 77.5742 73.1974 77.6121 73.2605C77.6499 73.3237 77.6625 73.3868 77.6625 73.4625C77.6751 73.614 77.6247 73.7655 77.5112 73.8791C77.4104 73.9801 77.2717 74.0432 77.1204 74.0306C77.007 74.0432 76.8935 73.9927 76.8053 73.917C76.6666 73.7908 76.5657 73.6519 76.4901 73.5004Z" fill="white"/>
<path d="M86.3107 89.508L80.7639 83.9533L77.4484 87.2861C77.2215 87.5134 76.8433 87.5134 76.6164 87.2861C76.503 87.1725 76.4399 87.021 76.4399 86.8695V76.2525C76.4399 75.9242 76.7047 75.6465 77.045 75.6465H87.6469C87.9747 75.6465 88.2394 75.9116 88.2394 76.2398C88.2394 76.4039 88.1764 76.5554 88.0629 76.6564L84.8483 79.8756L90.3951 85.4303C90.7481 85.7838 90.7481 86.3519 90.3951 86.7054L87.5839 89.508C87.2309 89.8615 86.6636 89.8615 86.3107 89.508Z" fill="#79D379"/>
<path d="M85.9576 87.488L81.5581 83.1073C81.4698 83.019 81.3311 83.019 81.2555 83.1073L78.4947 85.8847C78.167 86.2129 77.4736 85.8468 77.461 85.3797L77.0576 76.3281C77.0576 76.0377 77.2845 75.7979 77.5745 75.7979H77.5871L87.0292 75.8988C87.9999 75.8988 88.1259 76.3533 87.546 76.934L84.7222 79.7745L90.1807 85.2156L87.7729 87.5006C87.2687 87.993 86.4619 87.993 85.9576 87.488Z" fill="#96E296"/>
<path d="M86.7014 89.4952L81.0538 83.8395C80.9277 83.7132 80.6378 83.8016 80.5243 83.9152L78.1291 86.3138L77.5366 86.9072C77.461 86.9829 77.3097 87.1975 77.2089 87.2354C76.7172 87.3869 76.7424 86.7557 76.7424 86.4527V78.7771C76.7424 77.9565 76.6164 77.0349 76.7424 76.2144C76.8055 75.8104 76.9189 75.8104 77.2341 75.8104H86.5627C86.8527 75.8104 87.2182 75.7599 87.4956 75.8104C88.4411 75.9998 87.5838 76.8203 87.2813 77.1233L84.5835 79.8249C84.5457 79.8628 84.4827 79.9385 84.5457 79.989L88.3276 83.7763C88.9075 84.3571 89.5252 84.9251 90.0925 85.5437C90.7858 86.3138 89.8782 86.9198 89.3361 87.45L87.9242 88.8513C87.6595 89.1417 87.193 89.8865 86.7014 89.4952C86.5375 89.3689 85.9702 89.5961 86.1341 89.735C87.1426 90.5303 88.0124 89.3689 88.668 88.7251C89.3739 88.0181 90.2438 87.349 90.8362 86.5411C91.4287 85.7331 90.4076 85.0514 89.9034 84.5464C88.9705 83.6122 88.0251 82.6654 87.0922 81.7312L85.1382 79.7744C85.1256 79.8249 85.113 79.888 85.1004 79.9385L87.7981 77.2369C88.0755 76.9592 88.5419 76.631 88.5545 76.2017C88.5671 75.6589 88.0755 75.4948 87.6216 75.4822C84.8735 75.419 82.1001 75.4822 79.3519 75.4822H77.7005C77.4106 75.4822 77.0954 75.4569 76.8181 75.5453C75.8852 75.8356 76.1499 77.0854 76.1499 77.8429V86.4906C76.1499 86.8945 76.0995 87.2985 76.5155 87.5258C77.0828 87.8414 77.5997 87.4374 77.9778 87.046L81.0286 83.9909L80.4991 84.0667L86.1467 89.7224C86.2854 89.8865 86.8527 89.6593 86.7014 89.4952Z" fill="#6A79A8"/>
<path d="M50.2694 59.3233C50.9502 60.2954 51.757 61.1665 52.6646 61.9113C52.8285 62.0375 53.3832 61.8103 53.2319 61.6841C52.3243 60.9392 51.5175 60.0681 50.8367 59.0961C50.7233 58.932 50.1308 59.1339 50.2694 59.3233Z" fill="#6A79A8"/>
<path d="M48.0379 63.7419C49.1095 64.2469 50.2314 64.6004 51.3912 64.815C51.5425 64.8402 52.072 64.6004 51.8829 64.5625C50.7231 64.3605 49.5885 63.9944 48.5296 63.4894C48.4035 63.4263 47.8489 63.6536 48.0379 63.7419Z" fill="#6A79A8"/>
<path d="M55.7653 60.6109C55.4754 59.4747 55.3367 58.3132 55.3619 57.1518C55.3619 56.8867 54.7568 57.0003 54.7568 57.2149C54.7316 58.4142 54.8703 59.6009 55.1728 60.7624C55.2106 61.0022 55.8283 60.8381 55.7653 60.6109Z" fill="#6A79A8"/>
</g>
<defs>
<clipPath id="clip0">
<rect width="77.5" height="52" fill="white" transform="translate(30 46.0005)"/>
</clipPath>
<clipPath id="clip1">
<rect width="43" height="33" fill="white" transform="translate(48 57)"/>
</clipPath>
</defs>
</svg>

<svg xmlns="http://www.w3.org/2000/svg" width="136" height="136" fill="none"><path fill="#F9F9F9" d="M37.739 121.31c-2.648-.572-34.458-5.729-32.114-43.76 2.344-38.031 5.281-49.469 17.649-53.654C35.64 19.711 65.7-.087 89.29 18.74c6.125 4.887 12.364 9.616 18.325 14.731 8.19 7.03 16.612 15.146 20.635 25.78A34.866 34.866 0 0 1 130.329 75c-.617 6.276-1.484 12.375-3.064 18.5l-1.614 6.25c-.322 1.25-.647 2.508-1.156 3.685-3.271 7.588-7.398 12.566-14.311 16.606-6 3.5-13.435 3.414-20.063 3.028-26.354-1.536-39.794.964-52.382-1.759"/><path fill="#fff" d="M17.83 49.9v44.125c0 4.023 3.146 7.285 7.03 7.285h85.076c3.875 0 7.022-3.26 7.022-7.285V49.9c0-4.023-3.143-7.285-7.022-7.285H24.855c-3.88.002-7.025 3.26-7.025 7.285"/><path fill="#6A79A8" d="M117.215 49.9v44.124c0 4.156-3.266 7.541-7.279 7.541H24.855c-4.015 0-7.285-3.382-7.285-7.54V49.898c0-4.156 3.265-7.541 7.285-7.541h85.081c4.013.002 7.279 3.385 7.279 7.541M18.09 94.023c0 3.875 3.036 7.03 6.774 7.03h85.072c3.731 0 6.768-3.152 6.768-7.03V49.9c0-3.875-3.037-7.03-6.768-7.03H24.855c-3.733 0-6.774 3.154-6.774 7.03z"/><g clip-path="url(#a)"><path fill="#fff" d="m117.208 94.266.459-43.523c.046-4.278-8.57-7.625-19.167-7.47l-61.581.912c-10.021.148-18.054 3.609-18.01 7.725l.396 41.893c.04 4.04 8.043 7.375 17.95 7.446l60.86.465c10.465.081 19.048-3.251 19.093-7.448"/><path fill="#F0F9FC" d="m67.884 43.727 49.539 30.125.244-23.103c.046-4.277-8.57-7.625-19.167-7.468zm12.77 57.854L19.035 65.058l.272 28.74c.039 4.04 8.043 7.375 17.95 7.446zM29.827 44.886l86.307 51.84c.677-.767 1.066-1.595 1.074-2.46l.061-5.652-73.795-44.525-6.55.096a41.353 41.353 0 0 0-7.097.701"/></g><path fill="#6A79A8" d="M107.71 45.868v52.193a.25.25 0 0 1-.25.25H29.78a.25.25 0 0 1-.257-.25V45.868a.251.251 0 0 1 .257-.25h77.673a.252.252 0 0 1 .237.153.25.25 0 0 1 .02.097m-.512 51.937v-51.68H30.035v51.68zm7.886-29.411v6.916a2.864 2.864 0 0 1-1.707 2.68 2.862 2.862 0 0 1-3.768-1.466 2.878 2.878 0 0 1-.242-1.089v-7.041a2.864 2.864 0 0 1 1.707-2.68 2.862 2.862 0 0 1 3.128.552 2.878 2.878 0 0 1 .882 2.128m-5.209 6.916a2.356 2.356 0 0 0 .648 1.676 2.35 2.35 0 0 0 3.846-.672c.125-.282.192-.586.2-.894v-7.026a2.357 2.357 0 0 0-.649-1.676 2.346 2.346 0 0 0-4.045 1.566v.11z"/><g clip-path="url(#b)"><path fill="#EF8F7F" d="M57.745 62.315h20.031a2.27 2.27 0 0 1 2.27 2.272v13.117a2.27 2.27 0 0 1-2.27 2.272H57.745a2.27 2.27 0 0 1-2.27-2.272V64.6a2.272 2.272 0 0 1 2.27-2.285"/><path fill="#F9AB98" d="M58.88 63.691h17.76c1.06 0 1.917.859 1.917 1.92v11.084c0 1.06-.858 1.918-1.917 1.918H58.88a1.917 1.917 0 0 1-1.916-1.918V65.61c-.013-1.06.857-1.919 1.916-1.919"/><path fill="#6A79A8" d="M77.965 62.189H58.3c-1.222 0-2.496.391-2.975 1.641-.315.82-.151 1.944-.151 2.803v9.885c0 1.136-.114 2.335.92 3.118.744.568 1.626.48 2.496.48h18.128c.883 0 1.752.037 2.534-.48 1.122-.732 1.11-1.881 1.11-3.055v-9.822c0-.871.138-1.881-.051-2.74-.252-1.11-1.248-1.792-2.345-1.83-.139 0-.693.252-.39.265 1.235.05 2.13 1.01 2.168 2.235.012.252 0 .505 0 .77v4.166c0 2.689.025 5.39 0 8.08-.013.984-.593 2.044-1.677 2.158a3.89 3.89 0 0 1-.542 0h-12.86c-2.206 0-4.424.025-6.63 0-1.437-.013-2.257-1.11-2.27-2.462V65.03c0-1.211.416-2.512 1.879-2.575.769-.025 1.55 0 2.332 0h17.598c.139 0 .694-.265.391-.265"/><path fill="#fff" d="M63.38 72.011c0 .215-.05.43-.139.631-.113.24-.265.467-.441.657a2.522 2.522 0 0 1-.782.53 2.79 2.79 0 0 1-1.11.202c-.289 0-.579-.025-.869-.089a2.495 2.495 0 0 1-.718-.277 2.564 2.564 0 0 1-.996-1.136 3.15 3.15 0 0 1-.253-.758 3.859 3.859 0 0 1-.088-.846 3.632 3.632 0 0 1 .215-1.313 2.726 2.726 0 0 1 1.537-1.616 3.177 3.177 0 0 1 1.135-.214c.454-.013.895.088 1.311.29.353.164.656.417.883.72.189.227.29.517.302.82 0 .14-.05.278-.151.38a.49.49 0 0 1-.353.163.461.461 0 0 1-.353-.113c-.1-.114-.19-.24-.265-.38a1.812 1.812 0 0 0-.567-.668 1.487 1.487 0 0 0-.794-.228 1.463 1.463 0 0 0-1.198.569c-.302.378-.441.921-.441 1.628-.013.404.05.796.202 1.174.113.29.302.53.567.695.252.151.555.24.844.227.316.012.63-.076.896-.265.252-.19.453-.467.554-.77.038-.14.114-.278.19-.392a.42.42 0 0 1 .378-.151c.138 0 .277.05.378.151.088.101.138.24.126.379m1.02 1.325v-4.885a.76.76 0 0 1 .152-.518.58.58 0 0 1 .82-.013.701.701 0 0 1 .15.518v4.886a.71.71 0 0 1-.163.517.551.551 0 0 1-.416.177.543.543 0 0 1-.403-.177.872.872 0 0 1-.14-.505m2.863-4.418a.651.651 0 0 1-.404-.14.55.55 0 0 1 0-.794.594.594 0 0 1 .404-.152c.138 0 .277.05.39.139a.492.492 0 0 1 .164.404.492.492 0 0 1-.164.404.642.642 0 0 1-.39.139m.554 1.161v3.257a.771.771 0 0 1-.164.518.543.543 0 0 1-.403.177.543.543 0 0 1-.403-.177.728.728 0 0 1-.152-.505v-3.22a.729.729 0 0 1 .152-.504.49.49 0 0 1 .403-.164.53.53 0 0 1 .403.164.581.581 0 0 1 .164.454m5.206 2.551c0 .163-.05.315-.126.454-.1.176-.227.328-.378.454a2.05 2.05 0 0 1-.656.354c-.29.088-.58.126-.882.126-.693 0-1.235-.202-1.626-.606-.39-.404-.58-.947-.58-1.629a2.697 2.697 0 0 1 .265-1.224c.164-.341.44-.631.781-.82a2.663 2.663 0 0 1 2.017-.165c.227.076.429.19.618.328.151.114.29.266.39.43.076.126.127.277.14.429 0 .126-.05.252-.152.34a.549.549 0 0 1-.365.14.352.352 0 0 1-.227-.076 1.823 1.823 0 0 1-.215-.228 1.893 1.893 0 0 0-.428-.467 1.063 1.063 0 0 0-1.374.228c-.202.265-.303.618-.303 1.073 0 .202.025.391.076.58.05.165.126.316.227.455.1.126.214.215.353.29a1.168 1.168 0 0 0 1.046-.05 1.41 1.41 0 0 0 .429-.48.871.871 0 0 1 .227-.303.36.36 0 0 1 .29-.1.45.45 0 0 1 .453.466m3.467.871-.996-1.64-.605.58v.896a.718.718 0 0 1-.164.505.516.516 0 0 1-.39.177.466.466 0 0 1-.404-.177.761.761 0 0 1-.151-.517v-4.798a.979.979 0 0 1 .138-.568.485.485 0 0 1 .416-.19.527.527 0 0 1 .416.178c.114.151.164.34.152.53v2.74l1.26-1.326a2.99 2.99 0 0 1 .353-.341.502.502 0 0 1 .303-.088c.126 0 .252.038.353.139a.488.488 0 0 1 .138.34c0 .164-.15.38-.453.657l-.593.543 1.16 1.817.19.303c.037.064.05.127.05.203a.523.523 0 0 1-.543.568.425.425 0 0 1-.315-.114 1.398 1.398 0 0 1-.315-.417"/><path fill="#79D379" d="m86.31 89.508-5.546-5.555-3.316 3.333a.593.593 0 0 1-1.008-.416V76.252c0-.328.265-.605.605-.605h10.602c.328 0 .592.265.592.593a.552.552 0 0 1-.176.416l-3.215 3.22 5.547 5.554a.9.9 0 0 1 0 1.275l-2.811 2.803a.897.897 0 0 1-1.273 0"/><path fill="#96E296" d="m85.958 87.488-4.4-4.38c-.088-.089-.227-.089-.303 0l-2.76 2.777c-.328.328-1.021-.038-1.034-.505l-.403-9.052c0-.29.226-.53.516-.53h.013l9.442.1c.97 0 1.097.455.517 1.036l-2.824 2.84 5.459 5.442-2.408 2.285a1.288 1.288 0 0 1-1.815-.013"/><path fill="#6A79A8" d="m86.701 89.495-5.647-5.656c-.126-.126-.416-.037-.53.076l-2.395 2.399-.592.593c-.076.076-.227.29-.328.328-.492.152-.467-.48-.467-.782v-7.676c0-.82-.126-1.742 0-2.563.063-.404.177-.404.492-.404h9.329c.29 0 .655-.05.933 0 .945.19.088 1.01-.215 1.313l-2.698 2.702c-.037.038-.1.114-.037.164l3.782 3.787c.58.581 1.197 1.15 1.764 1.768.694.77-.214 1.376-.756 1.906l-1.412 1.401c-.265.29-.731 1.035-1.223.644-.163-.126-.73.101-.567.24 1.009.795 1.878-.366 2.534-1.01.706-.707 1.576-1.376 2.168-2.184.593-.808-.428-1.49-.933-1.995l-2.81-2.815-1.955-1.957c-.012.05-.025.114-.038.165l2.698-2.702c.278-.278.744-.606.757-1.035.012-.543-.48-.707-.933-.72-2.748-.063-5.522 0-8.27 0H77.7c-.29 0-.606-.025-.883.063-.933.29-.668 1.54-.668 2.298v8.648c0 .403-.05.808.365 1.035.568.315 1.085-.089 1.463-.48l3.05-3.055-.529.076 5.648 5.655c.138.165.706-.063.554-.227M50.27 59.323a12.95 12.95 0 0 0 2.395 2.588c.163.127.718-.1.567-.227a12.984 12.984 0 0 1-2.395-2.588c-.114-.164-.706.038-.568.227m-2.231 4.419a13.69 13.69 0 0 0 3.353 1.073c.151.025.681-.215.492-.252a13 13 0 0 1-3.353-1.074c-.127-.063-.681.165-.492.253m7.727-3.132a12.857 12.857 0 0 1-.403-3.458c0-.265-.605-.152-.605.063-.025 1.2.113 2.386.416 3.547.038.24.655.076.592-.151"/></g><defs><clipPath id="a"><path fill="#fff" d="M30 46h77.5v52H30z"/></clipPath><clipPath id="b"><path fill="#fff" d="M48 57h43v33H48z"/></clipPath></defs></svg>
